X: 27696
T: Mormond Braes
R: barndance
M: 4/4
K: Dmajor
zD|F2 F2 F3 E|F2 D2 D3 A|d2 d2 d2 A2|B4 A3
A|d2 d2 d2 f2|A2 A2 F2 AA|B2 A2 d2 F2|E4 D2:|

